icons/mail-open-fill.svg

<svg viewBox="0 0 24 24" fill="currentColor" xmlns="http://www.w3.org/2000/svg">
    <path d="M2.24283 6.85435L11.4895 1.3086C11.8062 1.11865 12.2019 1.11872 12.5185 1.30878L21.7573 6.85433C21.9079 6.9447 22 7.10743 22 7.28303V20C22 20.5523 21.5523 21 21 21H3C2.44772 21 2 20.5523 2 20V7.28315C2 7.10748 2.09218 6.94471 2.24283 6.85435ZM18.3456 8.24383L12.0606 13.6829L5.64722 8.23769L4.35278 9.7623L12.0731 16.3171L19.6544 9.75615L18.3456 8.24383Z"/>
</svg>

<svg xmlns="http://www.w3.org/2000/svg" viewBox="0 0 24 24">
    <g>
        <path fill="none" d="M0 0h24v24H0z"/>
        <path d="M2.243 6.854L11.49 1.31a1 1 0 0 1 1.029 0l9.238 5.545a.5.5 0 0 1 .243.429V20a1 1 0 0 1-1 1H3a1 1 0 0 1-1-1V7.283a.5.5 0 0 1 .243-.429zm16.103 1.39l-6.285 5.439-6.414-5.445-1.294 1.524 7.72 6.555 7.581-6.56-1.308-1.513z"/>
    </g>
</svg>
